packages/components/Atoms/Icon/assets/img/rpl_icon_alert_lightning.svg

<svg width="20" height="20" viewBox="0 0 20 20" overflow="visible" xmlns="http://www.w3.org/2000/svg">
  <path d="M13.974 11.25L8.491 17.35C8.36948 17.4922 8.19951 17.5842 8.01402 17.6082C7.82853 17.6322 7.64073 17.5865 7.487 17.48C7.32845 17.3669 7.21138 17.2049 7.15376 17.0188C7.09614 16.8328 7.10114 16.6329 7.168 16.45L8.852 11.68L6.36 9.825C6.26324 9.75085 6.18301 9.65731 6.12447 9.55038C6.06592 9.44345 6.03034 9.32547 6.02 9.204C6.00817 9.08163 6.02159 8.95814 6.05944 8.84117C6.09728 8.7242 6.15874 8.61625 6.24 8.524L11.72 2.423C11.8419 2.28113 12.0121 2.18937 12.1976 2.16537C12.3831 2.14137 12.571 2.18683 12.725 2.293C13.045 2.511 13.178 2.941 13.045 3.323L11.361 8.093L13.853 9.947C14.045 10.091 14.17 10.318 14.193 10.568C14.217 10.819 14.136 11.068 13.973 11.249L13.974 11.25ZM10 0C4.485 0 0 4.486 0 10C0 15.514 4.485 20 10 20C15.514 20 20 15.514 20 10C20 4.486 15.514 0 10 0Z"
    fill="inherit" />
</svg>

<svg width="20" height="20" overflow="visible" xmlns="http://www.w3.org/2000/svg"><path d="M13.974 11.25l-5.483 6.1a.755.755 0 01-1.004.13.89.89 0 01-.319-1.03l1.684-4.77L6.36 9.825a.876.876 0 01-.34-.621.898.898 0 01.22-.68l5.48-6.101a.758.758 0 011.005-.13c.32.218.453.648.32 1.03l-1.684 4.77 2.492 1.854a.876.876 0 01.34.621.893.893 0 01-.22.681l.001.001zM10 0C4.485 0 0 4.486 0 10s4.485 10 10 10c5.514 0 10-4.486 10-10S15.514 0 10 0z" fill="inherit"/></svg>
